icons/Transmissionicons.svg

<svg width="48" height="48" viewBox="0 0 48 48" fill="none" xmlns="http://www.w3.org/2000/svg">
<path d="M15.6975 30.3076L32.1488 46.1551H36.2406L26.7154 2.03354L38.4543 9.07689L39.1754 9.49614C39.4848 9.66147 39.7295 9.92631 39.8698 10.2479C40.0101 10.5694 40.038 10.9289 39.9488 11.2682C39.8596 11.6075 39.6586 11.9068 39.3783 12.1178C39.098 12.3288 38.7547 12.4391 38.404 12.4309H9.61007C9.30103 12.4336 8.99967 12.3346 8.75243 12.1492C8.50519 11.9637 8.3258 11.7021 8.24191 11.4047C8.15801 11.1072 8.17426 10.7904 8.28816 10.5031C8.40206 10.2158 8.60728 9.97393 8.8722 9.81477L10.5492 8.70795L21.3993 2L11.7398 46.1551H15.8149L32.1823 30.1902" stroke="#3D3D3D" stroke-width="0.75" stroke-linecap="round" stroke-linejoin="round"/>
<path d="M18.4143 13.5209L9.50945 20.2288L8.60388 20.9164C8.3528 21.1002 8.16627 21.3588 8.07095 21.655C7.97562 21.9512 7.97637 22.27 8.07311 22.5658C8.16984 22.8616 8.35759 23.1192 8.60954 23.3018C8.86148 23.4845 9.16472 23.5828 9.47591 23.5828H38.2698C38.6146 23.5943 38.9537 23.4924 39.2351 23.2927C39.5164 23.0929 39.7244 22.8064 39.8272 22.477C39.93 22.1477 39.9219 21.7937 39.8042 21.4693C39.6864 21.145 39.4655 20.8683 39.1754 20.6816L38.4878 20.1953L29.2644 13.3699" stroke="#3D3D3D" stroke-width="0.75" stroke-linecap="round" stroke-linejoin="round"/>
</svg>

<svg xmlns="http://www.w3.org/2000/svg" width="16" height="16" fill="currentColor" class="si si-Transmissionicons" viewBox="0 0 16 16">
  <path stroke="#3D3D3D" stroke-linecap="round" stroke-linejoin="round" stroke-width=".75" d="m15.698 30.308 16.45 15.847h4.093L26.715 2.034l11.74 7.043.72.42a1.56 1.56 0 0 1-.771 2.934H9.61a1.41 1.41 0 0 1-.738-2.616l1.677-1.107L21.4 2l-9.66 44.155h4.076L32.182 30.19"/>
  <path stroke="#3D3D3D" stroke-linecap="round" stroke-linejoin="round" stroke-width=".75" d="M18.414 13.52 9.51 20.23l-.905.687a1.476 1.476 0 0 0 .872 2.667H38.27a1.577 1.577 0 0 0 .905-2.901l-.687-.487-9.224-6.825"/>
</svg>
